!!key: tele-40-3-Fan-All-4-Flute
!!!COM: Telemann, Georg Philipp
!!!CDT: 1681/03/14-1767/06/25
!!!CBL: Magdeburg
!!!CDL: Hamburg
!!!CNT: German
!!!TWV: 40:3
!!!TWV-genre: 40
!!!TWV-work: 3
!!!OPR: 12 Fantasias for transverse flute without bass
!!!OTL: Fantasia 2
!!!OMD: Allegro
!!!OMV: 4
!!!ODT: ca. 1732–1733
!!!AST: Late Baroque
!!!AGN: Fantasia
!!!AMT: Simple duple
!!!AIN: Transverse flute
**kern
*ICww
*Iflt
*clefG2
*k[]
*a:
*M2/4
8ee
=1
8aaL
16bbL
16cccJJ
8bbL
8aaJ
=2
8gg#XL
8aaJ
8r
8ee
=3
16ddLL
16cc
16b
16aJJ
8eeL
8aJ
=4
8g#XL
8aJ
8r
8e
=5
16aLL
16b
16cc
16aJJ
16bLL
16cc
16dd
16bJJ
=6
16ccLL
16b
16a
16ccJJ
16eLL
16g#XJ
8bJ
!!LO:LB:g=original
=7
16aLL
16b
16cc
16aJJ
16bLL
16cc
16dd
16bJJ
=8
16ccLL
16b
16a
16ccJJ
16eLL
16g#XJ
8bJ
=9
8ccL
8cc#X
8dd
8dd#XJ
=10
16eeLL
16dd#XJ
8eeJ
8r
8ff#X
=11
8ggL
8gg#X
8aa
8aa#XJ
=12
16bbLL
16aa#XJ
8bbJ
8r
8bb
!!LO:LB:g=original
=13
16aanLL
16gg
16ff#X
16eeJJ
16ggLL
16ff#
16ee
16dd#XJJ
=14
16eeLL
16b
16g
16eJJ
16eeLL
16b
16g
16eJJ
=15
8eeL
8dd#X
8ddn
8cc#XJ
=16
8ccnL
8bJ
8r
8a
=17
8gL
8ee
8f#X
8dd#XJ
=18
4.e
=:||:
8b
=19
8eeL
16ggL
16ffJJ
8eeL
8ddJ
!!LO:LB:g=original
=20
8cc#XL
8aaJ
8r
8gg
=21
8ffL
16eeL
16ddJJ
16ffLL
16ee
16dd
16cc#XJJ
=22
8ddL
8aJ
16dLL
16dd
16ccn
16bJJ
=23
8ccL
8eJ
16f#XLL
16cc
16b
16aJJ
=24
8bL
16gL
16f#XJJ
16gLL
16a
16b
16cc#XJJ
=25
8ddL
8f#XJ
16g#XLL
16dd
16cc
16bJJ
!!LO:LB:g=original
=26
8ccL
16aL
16g#XJJ
8aL
8eeJ
=27
8fL
16ffL
16eeJJ
16ddLL
16cc
16b
16aJJ
=28
4g#X
8r
8ee
=29
8aaL
16bbL
16cccJJ
8bbL
8aaJ
=30
8gg#XL
8aaJ
8r
8ee
=31
16ddLL
16cc
16b
16aJJ
8eeL
8aJ
=32
8g#XL
8aJ
8r
8a
!!LO:LB:g=original
=33
8b-XL
8bn
8cc
8cc#XJ
=34
16ddLL
16cc#XJ
8ddJ
8ffL
8eeJ
=35
8aaL
16ggL
16ffJJ
16eeLL
16dd
16ccn
16bJJ
=36
16aLL
16cc
16b
16aJJ
16eeLL
16cc
16b
16aJJ
=37
8ffL
8ee
8gg
8ff#XJ
=38
8aaL
8gg#X
8bb
8eeJ
=39
8ccL
16bL
16aJJ
8eL
8g#XJ
=40
4.a
==:|
*-
!!!RTL1: G. PH. Telemann: Twelve Fantasias for Flute without Bass TWV 40:2-13
!!!RPN1: D'Arcangelo, Rita
!!!RMM1: Da Vinci Classics
!!!RC#1: DV-C00440
!!!RRD1: 2022
!!!RLC1: Andreaskirche, Berlin, Germany
!!!RDT1: 16 September 2020, 17 September 2020
!!!RT#1: 2
!!!RTL2: The Telemann Files: 12 Fantasies for Solo Flute
!!!RPN2: Choi, Jasmine
!!!RMM2: Austrian Gramophone
!!!RC#2: AG0001
!!!RRD2: February 2015
!!!RLC2: LeFrak Hall, Queens, USA
!!!RDT2: 9 June 2014, 10 June 2014
!!!RT#2: 2
!!!RTL3: Georg Philipp Telemann: Twelve Fantasies for Flute
!!!RPN3: Robertello, Thomas
!!!RMM3: Delos
!!!RC#3: DE3396
!!!RRD3: 1 June 2009
!!!RLC3: Clear Creek Recording, Keene, California
!!!RDT3: Unknown
!!!RT#3: 2
